local_packages/corporate/Resources/Public/Assets/outdoor_allaround_logo.svg

<svg width="318" height="128" viewBox="0 0 318 128" fill="none" xmlns="http://www.w3.org/2000/svg">
<path fill-rule="evenodd" clip-rule="evenodd" d="M59.9213 0L0 103.787H119.843L59.9213 0ZM59.9213 13.3856L11.5923 97.0939H108.25L59.9213 13.3856Z" fill="black"/>
<path d="M141.106 65.7778C139.206 65.7778 137.455 65.2897 135.851 64.3137C134.265 63.3377 132.984 62.0392 132.008 60.4183C131.049 58.7799 130.57 56.9847 130.57 55.0327L130.622 38.0653C130.622 36.0784 131.102 34.2919 132.06 32.7059C133.001 31.1024 134.274 29.8213 135.877 28.8627C137.481 27.8867 139.224 27.3987 141.106 27.3987C143.058 27.3987 144.81 27.878 146.361 28.8366C147.93 29.7952 149.184 31.085 150.126 32.7059C151.084 34.3094 151.563 36.0958 151.563 38.0653L151.616 55.0327C151.616 56.9847 151.145 58.7712 150.204 60.3921C149.245 62.0305 147.973 63.3377 146.387 64.3137C144.801 65.2897 143.041 65.7778 141.106 65.7778ZM141.106 59.3203C142.187 59.3203 143.128 58.8845 143.93 58.0131C144.731 57.1242 145.132 56.1307 145.132 55.0327L145.08 38.0653C145.08 36.8802 144.705 35.878 143.956 35.0588C143.206 34.2396 142.256 33.8301 141.106 33.8301C140.008 33.8301 139.067 34.2309 138.282 35.0327C137.498 35.8344 137.106 36.8453 137.106 38.0653V55.0327C137.106 56.2004 137.498 57.2113 138.282 58.0653C139.067 58.902 140.008 59.3203 141.106 59.3203Z" fill="black"/>
<path d="M165.524 65.7778C163.642 65.7778 161.899 65.2897 160.296 64.3137C158.692 63.3377 157.411 62.0305 156.452 60.3921C155.511 58.7364 155.041 56.9325 155.041 54.9804L155.145 28.2091C155.145 28.0697 155.215 28 155.354 28H161.367C161.507 28 161.577 28.0697 161.577 28.2091V54.9804C161.577 56.183 161.96 57.2113 162.727 58.0653C163.494 58.902 164.426 59.3203 165.524 59.3203C166.675 59.3203 167.633 58.902 168.4 58.0653C169.167 57.2113 169.55 56.183 169.55 54.9804V28.2091C169.55 28.0697 169.62 28 169.76 28H175.773C175.912 28 175.982 28.0697 175.982 28.2091L176.086 54.9804C176.086 56.9499 175.616 58.7625 174.675 60.4183C173.716 62.0566 172.444 63.3638 170.858 64.3399C169.272 65.2985 167.494 65.7778 165.524 65.7778Z" fill="black"/>
<path d="M191.72 65.2549H185.681C185.524 65.2549 185.446 65.1677 185.446 64.9935V34.4575H178.492C178.317 34.4575 178.23 34.3704 178.23 34.1961L178.282 28.2091C178.282 28.0697 178.352 28 178.492 28H198.831C199.023 28 199.119 28.0697 199.119 28.2091V34.1961C199.119 34.3704 199.049 34.4575 198.91 34.4575H191.877L191.929 64.9935C191.929 65.1677 191.86 65.2549 191.72 65.2549Z" fill="black"/>
<path d="M211.59 65.2026L201.995 65.2549C201.821 65.2549 201.733 65.1677 201.733 64.9935L201.838 28.2091C201.838 28.0697 201.908 28 202.047 28L212.06 27.9477C214.047 27.8954 215.842 28.3486 217.446 29.3072C219.067 30.2658 220.357 31.5643 221.315 33.2026C222.291 34.8235 222.779 36.6187 222.779 38.5882V53.9608C222.779 56.0174 222.282 57.8998 221.289 59.6078C220.278 61.2985 218.936 62.6492 217.263 63.6601C215.59 64.6536 213.699 65.1677 211.59 65.2026ZM212.06 34.3529L208.322 34.4052L208.269 58.6667H211.59C212.914 58.6667 214.03 58.2048 214.936 57.281C215.842 56.3573 216.296 55.2505 216.296 53.9608V38.5359C216.296 37.403 215.877 36.4183 215.041 35.5817C214.204 34.7277 213.211 34.3181 212.06 34.3529Z" fill="black"/>
<path d="M236.897 65.7778C234.997 65.7778 233.245 65.2897 231.642 64.3137C230.056 63.3377 228.775 62.0392 227.799 60.4183C226.84 58.7799 226.361 56.9847 226.361 55.0327L226.413 38.0653C226.413 36.0784 226.892 34.2919 227.851 32.7059C228.792 31.1024 230.065 29.8213 231.668 28.8627C233.272 27.8867 235.014 27.3987 236.897 27.3987C238.849 27.3987 240.601 27.878 242.152 28.8366C243.72 29.7952 244.975 31.085 245.916 32.7059C246.875 34.3094 247.354 36.0958 247.354 38.0653L247.407 55.0327C247.407 56.9847 246.936 58.7712 245.995 60.3921C245.036 62.0305 243.764 63.3377 242.178 64.3137C240.592 65.2897 238.831 65.7778 236.897 65.7778ZM236.897 59.3203C237.977 59.3203 238.919 58.8845 239.72 58.0131C240.522 57.1242 240.923 56.1307 240.923 55.0327L240.871 38.0653C240.871 36.8802 240.496 35.878 239.746 35.0588C238.997 34.2396 238.047 33.8301 236.897 33.8301C235.799 33.8301 234.858 34.2309 234.073 35.0327C233.289 35.8344 232.897 36.8453 232.897 38.0653V55.0327C232.897 56.2004 233.289 57.2113 234.073 58.0653C234.858 58.902 235.799 59.3203 236.897 59.3203Z" fill="black"/>
<path d="M261.367 65.7778C259.468 65.7778 257.716 65.2897 256.113 64.3137C254.526 63.3377 253.245 62.0392 252.269 60.4183C251.311 58.7799 250.831 56.9847 250.831 55.0327L250.884 38.0653C250.884 36.0784 251.363 34.2919 252.322 32.7059C253.263 31.1024 254.535 29.8213 256.139 28.8627C257.742 27.8867 259.485 27.3987 261.367 27.3987C263.319 27.3987 265.071 27.878 266.622 28.8366C268.191 29.7952 269.446 31.085 270.387 32.7059C271.346 34.3094 271.825 36.0958 271.825 38.0653L271.877 55.0327C271.877 56.9847 271.407 58.7712 270.465 60.3921C269.507 62.0305 268.235 63.3377 266.648 64.3137C265.062 65.2897 263.302 65.7778 261.367 65.7778ZM261.367 59.3203C262.448 59.3203 263.389 58.8845 264.191 58.0131C264.993 57.1242 265.394 56.1307 265.394 55.0327L265.341 38.0653C265.341 36.8802 264.967 35.878 264.217 35.0588C263.468 34.2396 262.518 33.8301 261.367 33.8301C260.269 33.8301 259.328 34.2309 258.544 35.0327C257.76 35.8344 257.367 36.8453 257.367 38.0653V55.0327C257.367 56.2004 257.76 57.2113 258.544 58.0653C259.328 58.902 260.269 59.3203 261.367 59.3203Z" fill="black"/>
<path d="M282.204 65.2549H276.139C275.999 65.2549 275.929 65.1677 275.929 64.9935L276.034 28.2091C276.034 28.0697 276.104 28 276.243 28H287.067C289.001 28 290.779 28.4706 292.4 29.4118C294.021 30.3529 295.311 31.6165 296.269 33.2026C297.245 34.7887 297.733 36.5839 297.733 38.5882C297.733 39.8954 297.533 41.0806 297.132 42.1438C296.731 43.207 296.261 44.1046 295.72 44.8366C295.197 45.5686 294.718 46.1089 294.282 46.4575C296.217 48.6013 297.184 51.1198 297.184 54.0131L297.237 64.9935C297.237 65.1677 297.15 65.2549 296.975 65.2549H290.91C290.77 65.2549 290.701 65.2026 290.701 65.098V54.0131C290.701 52.7233 290.248 51.6078 289.341 50.6667C288.435 49.7255 287.319 49.2549 285.995 49.2549H282.465L282.413 64.9935C282.413 65.1677 282.343 65.2549 282.204 65.2549ZM287.067 34.4052H282.465V42.8235H287.067C288.165 42.8235 289.141 42.4139 289.995 41.5948C290.866 40.7756 291.302 39.7734 291.302 38.5882C291.302 37.4553 290.884 36.4793 290.047 35.6601C289.211 34.8235 288.217 34.4052 287.067 34.4052Z" fill="black"/>
<path d="M129.394 106.824L136.034 70.0392C136.069 69.8998 136.156 69.8301 136.296 69.8301H144.06C144.2 69.8301 144.287 69.8998 144.322 70.0392L150.701 106.824C150.718 106.998 150.648 107.085 150.492 107.085H144.557C144.383 107.085 144.287 106.998 144.269 106.824L143.694 102.902H136.4L135.825 106.824C135.807 106.998 135.72 107.085 135.563 107.085H129.603C129.463 107.085 129.394 106.998 129.394 106.824ZM139.877 82.1438L137.472 97.1765H142.622L140.426 82.1438L140.113 80.1569L139.877 82.1438Z" fill="black"/>
<path d="M171.563 107.085H154.256C154.117 107.085 154.047 106.998 154.047 106.824L154.099 70.0915C154.099 69.9172 154.187 69.8301 154.361 69.8301H160.322C160.496 69.8301 160.583 69.9172 160.583 70.0915L160.531 100.497H171.563C171.738 100.497 171.825 100.584 171.825 100.758V106.824C171.825 106.998 171.738 107.085 171.563 107.085Z" fill="black"/>
<path d="M192.845 107.085H175.537C175.398 107.085 175.328 106.998 175.328 106.824L175.38 70.0915C175.38 69.9172 175.468 69.8301 175.642 69.8301H181.603C181.777 69.8301 181.864 69.9172 181.864 70.0915L181.812 100.497H192.845C193.019 100.497 193.106 100.584 193.106 100.758V106.824C193.106 106.998 193.019 107.085 192.845 107.085Z" fill="black"/>
<path d="M202.884 107.085H196.818C196.679 107.085 196.609 106.998 196.609 106.824L196.714 70.0392C196.714 69.8998 196.784 69.8301 196.923 69.8301H207.746C209.681 69.8301 211.459 70.3006 213.08 71.2418C214.701 72.183 215.991 73.4466 216.949 75.0327C217.925 76.6187 218.413 78.4139 218.413 80.4183C218.413 81.7255 218.213 82.9107 217.812 83.9738C217.411 85.037 216.94 85.9346 216.4 86.6667C215.877 87.3987 215.398 87.939 214.962 88.2876C216.897 90.4314 217.864 92.9499 217.864 95.8431L217.916 106.824C217.916 106.998 217.829 107.085 217.655 107.085H211.59C211.45 107.085 211.38 107.033 211.38 106.928V95.8431C211.38 94.5534 210.927 93.4379 210.021 92.4967C209.115 91.5555 207.999 91.085 206.675 91.085H203.145L203.093 106.824C203.093 106.998 203.023 107.085 202.884 107.085ZM207.746 76.2353H203.145V84.6536H207.746C208.845 84.6536 209.821 84.244 210.675 83.4248C211.546 82.6057 211.982 81.6035 211.982 80.4183C211.982 79.2854 211.563 78.3094 210.727 77.4902C209.89 76.6536 208.897 76.2353 207.746 76.2353Z" fill="black"/>
<path d="M232.348 107.608C230.448 107.608 228.696 107.12 227.093 106.144C225.507 105.168 224.226 103.869 223.25 102.248C222.291 100.61 221.812 98.8148 221.812 96.8627L221.864 79.8954C221.864 77.9085 222.343 76.122 223.302 74.5359C224.243 72.9325 225.516 71.6514 227.119 70.6928C228.723 69.7168 230.465 69.2287 232.348 69.2287C234.3 69.2287 236.051 69.708 237.603 70.6667C239.171 71.6253 240.426 72.915 241.367 74.5359C242.326 76.1394 242.805 77.9259 242.805 79.8954L242.858 96.8627C242.858 98.8148 242.387 100.601 241.446 102.222C240.487 103.861 239.215 105.168 237.629 106.144C236.043 107.12 234.282 107.608 232.348 107.608ZM232.348 101.15C233.428 101.15 234.37 100.715 235.171 99.8431C235.973 98.9542 236.374 97.9608 236.374 96.8627L236.322 79.8954C236.322 78.7102 235.947 77.708 235.197 76.8889C234.448 76.0697 233.498 75.6601 232.348 75.6601C231.25 75.6601 230.309 76.061 229.524 76.8627C228.74 77.6645 228.348 78.6754 228.348 79.8954V96.8627C228.348 98.0305 228.74 99.0414 229.524 99.8954C230.309 100.732 231.25 101.15 232.348 101.15Z" fill="black"/>
<path d="M256.766 107.608C254.884 107.608 253.141 107.12 251.537 106.144C249.934 105.168 248.653 103.861 247.694 102.222C246.753 100.566 246.282 98.7625 246.282 96.8104L246.387 70.0392C246.387 69.8998 246.457 69.8301 246.596 69.8301H252.609C252.749 69.8301 252.818 69.8998 252.818 70.0392V96.8104C252.818 98.0131 253.202 99.0414 253.969 99.8954C254.736 100.732 255.668 101.15 256.766 101.15C257.916 101.15 258.875 100.732 259.642 99.8954C260.409 99.0414 260.792 98.0131 260.792 96.8104V70.0392C260.792 69.8998 260.862 69.8301 261.001 69.8301H267.014C267.154 69.8301 267.224 69.8998 267.224 70.0392L267.328 96.8104C267.328 98.7799 266.858 100.593 265.916 102.248C264.958 103.887 263.685 105.194 262.099 106.17C260.513 107.129 258.736 107.608 256.766 107.608Z" fill="black"/>
<path d="M277.367 107.085H272.008C271.729 107.085 271.59 106.963 271.59 106.719L271.537 70.2484C271.537 69.9695 271.677 69.8301 271.956 69.8301H276.792L285.838 90.9281L285.577 70.2484C285.577 69.9695 285.733 69.8301 286.047 69.8301H291.354C291.563 69.8301 291.668 69.9695 291.668 70.2484L291.72 106.771C291.72 106.98 291.633 107.085 291.459 107.085H286.753L277.472 87.3725L277.864 106.667C277.864 106.946 277.699 107.085 277.367 107.085Z" fill="black"/>
<path d="M306.23 107.033L296.635 107.085C296.461 107.085 296.374 106.998 296.374 106.824L296.479 70.0392C296.479 69.8998 296.548 69.8301 296.688 69.8301L306.701 69.7778C308.688 69.7255 310.483 70.1786 312.086 71.1372C313.707 72.0958 314.997 73.3943 315.956 75.0327C316.932 76.6536 317.42 78.4488 317.42 80.4183V95.7908C317.42 97.8475 316.923 99.7298 315.929 101.438C314.919 103.129 313.577 104.479 311.903 105.49C310.23 106.484 308.339 106.998 306.23 107.033ZM306.701 76.183L302.962 76.2353L302.91 100.497H306.23C307.555 100.497 308.67 100.035 309.577 99.1111C310.483 98.1874 310.936 97.0806 310.936 95.7908V80.366C310.936 79.2331 310.518 78.2484 309.681 77.4118C308.845 76.5577 307.851 76.1481 306.701 76.183Z" fill="black"/>
<path fill-rule="evenodd" clip-rule="evenodd" d="M59.2239 121.307C87.5943 121.307 110.675 98.1298 110.675 69.4379C110.675 40.746 87.5943 17.5686 59.2239 17.5686C30.8534 17.5686 7.77289 40.746 7.77289 69.4379C7.77289 98.1298 30.8534 121.307 59.2239 121.307ZM59.2239 128C91.3358 128 117.368 101.781 117.368 69.4379C117.368 37.0949 91.3358 10.8758 59.2239 10.8758C27.1119 10.8758 1.08008 37.0949 1.08008 69.4379C1.08008 101.781 27.1119 128 59.2239 128Z" fill="black"/>
<path fill-rule="evenodd" clip-rule="evenodd" d="M29.028 96.2091H60.8028C60.2865 92.3419 60.1543 88.1734 61.1686 84.0291C62.5814 78.2568 66.1258 72.8725 73.0411 68.3787C75.1287 67.022 76.8631 65.6413 78.0728 64.3729C79.2454 63.1433 79.6161 62.3415 79.7004 62.0075C79.6322 61.9457 79.5117 61.8515 79.3107 61.7352C78.3527 61.181 76.3245 60.5572 72.5785 60.2853C63.2241 59.6063 53.2795 65.9653 44.5625 75.0246C37.8567 81.9938 32.3686 90.0547 29.028 96.2091ZM39.7397 70.3841C48.727 61.0439 60.5488 52.7017 73.063 53.61C77.1344 53.9055 80.3817 54.6228 82.6619 55.9418C83.8442 56.6257 84.8973 57.5471 85.5948 58.7795C86.3125 60.0478 86.5232 61.4176 86.3609 62.7345C86.0606 65.172 84.5105 67.3202 82.9162 68.9919C81.2326 70.7572 79.0455 72.4586 76.6879 73.9906C71.0773 77.6367 68.6436 81.6406 67.6696 85.6201C66.656 89.7616 67.1327 94.2227 68.0343 98.9255L68.7967 102.902H18.6064L20.5885 98.245C23.5658 91.2497 30.6196 79.8623 39.7397 70.3841Z" fill="black"/>
</svg>

<svg xmlns="http://www.w3.org/2000/svg" fill="none" viewBox="0 0 318 128">
    <path fill="currentColor" fill-rule="evenodd" d="M59.921 0 0 103.787h119.843L59.921 0Zm0 13.386L11.592 97.094h96.658L59.921 13.386Z" clip-rule="evenodd"/>
    <path fill="currentColor" d="M141.106 65.778a9.92 9.92 0 0 1-5.255-1.464 11.417 11.417 0 0 1-3.843-3.896c-.959-1.638-1.438-3.433-1.438-5.385l.052-16.968c0-1.987.48-3.773 1.438-5.36a10.756 10.756 0 0 1 3.817-3.842 9.875 9.875 0 0 1 5.229-1.464c1.952 0 3.704.479 5.255 1.438a10.832 10.832 0 0 1 3.765 3.869c.958 1.603 1.437 3.39 1.437 5.36l.053 16.967c0 1.952-.471 3.738-1.412 5.36a11.125 11.125 0 0 1-3.817 3.92c-1.586.977-3.346 1.465-5.281 1.465Zm0-6.458c1.081 0 2.022-.435 2.824-1.307.801-.889 1.202-1.882 1.202-2.98l-.052-16.968c0-1.185-.375-2.187-1.124-3.006-.75-.82-1.7-1.229-2.85-1.229-1.098 0-2.039.4-2.824 1.203-.784.801-1.176 1.812-1.176 3.032v16.968c0 1.167.392 2.178 1.176 3.032.785.837 1.726 1.255 2.824 1.255ZM165.524 65.778a9.87 9.87 0 0 1-5.228-1.464 11.048 11.048 0 0 1-3.844-3.922c-.941-1.656-1.411-3.46-1.411-5.412l.104-26.77c0-.14.07-.21.209-.21h6.013c.14 0 .21.07.21.21v26.77c0 1.203.383 2.231 1.15 3.085.767.837 1.699 1.255 2.797 1.255 1.151 0 2.109-.418 2.876-1.255.767-.854 1.15-1.882 1.15-3.085V28.21c0-.14.07-.21.21-.21h6.013c.139 0 .209.07.209.21l.104 26.77c0 1.97-.47 3.783-1.411 5.438a11.126 11.126 0 0 1-3.817 3.922c-1.586.959-3.364 1.438-5.334 1.438ZM191.72 65.255h-6.039c-.157 0-.235-.087-.235-.261V34.457h-6.954c-.175 0-.262-.088-.262-.262l.052-5.987c0-.14.07-.209.21-.209h20.339c.192 0 .288.07.288.21v5.986c0 .174-.07.262-.209.262h-7.033l.052 30.535c0 .175-.069.262-.209.262ZM211.59 65.203l-9.595.052c-.174 0-.262-.087-.262-.261l.105-36.785c0-.14.07-.209.209-.209l10.013-.052c1.987-.053 3.782.4 5.386 1.36a10.761 10.761 0 0 1 3.869 3.895c.976 1.62 1.464 3.416 1.464 5.385v15.373c0 2.056-.497 3.939-1.49 5.647a11.642 11.642 0 0 1-4.026 4.052c-1.673.994-3.564 1.508-5.673 1.543Zm.47-30.85-3.738.052-.053 24.262h3.321c1.324 0 2.44-.462 3.346-1.386.906-.924 1.36-2.03 1.36-3.32V38.536c0-1.133-.419-2.118-1.255-2.954-.837-.854-1.83-1.264-2.981-1.23ZM236.897 65.778c-1.9 0-3.652-.488-5.255-1.464a11.417 11.417 0 0 1-3.843-3.896c-.959-1.638-1.438-3.433-1.438-5.385l.052-16.968c0-1.987.479-3.773 1.438-5.36a10.756 10.756 0 0 1 3.817-3.842 9.873 9.873 0 0 1 5.229-1.464c1.952 0 3.704.479 5.255 1.438a10.83 10.83 0 0 1 3.764 3.869c.959 1.603 1.438 3.39 1.438 5.36l.053 16.967c0 1.952-.471 3.738-1.412 5.36a11.125 11.125 0 0 1-3.817 3.92c-1.586.977-3.347 1.465-5.281 1.465Zm0-6.458c1.08 0 2.022-.435 2.823-1.307.802-.889 1.203-1.882 1.203-2.98l-.052-16.968c0-1.185-.375-2.187-1.125-3.006-.749-.82-1.699-1.229-2.849-1.229-1.098 0-2.039.4-2.824 1.203-.784.801-1.176 1.812-1.176 3.032v16.968c0 1.167.392 2.178 1.176 3.032.785.837 1.726 1.255 2.824 1.255ZM261.367 65.778a9.916 9.916 0 0 1-5.254-1.464 11.41 11.41 0 0 1-3.844-3.896c-.958-1.638-1.438-3.433-1.438-5.385l.053-16.968c0-1.987.479-3.773 1.438-5.36a10.748 10.748 0 0 1 3.817-3.842 9.87 9.87 0 0 1 5.228-1.464c1.952 0 3.704.479 5.255 1.438a10.824 10.824 0 0 1 3.765 3.869c.959 1.603 1.438 3.39 1.438 5.36l.052 16.967c0 1.952-.47 3.738-1.412 5.36a11.108 11.108 0 0 1-3.817 3.92c-1.586.977-3.346 1.465-5.281 1.465Zm0-6.458c1.081 0 2.022-.435 2.824-1.307.802-.889 1.203-1.882 1.203-2.98l-.053-16.968c0-1.185-.374-2.187-1.124-3.006-.749-.82-1.699-1.229-2.85-1.229-1.098 0-2.039.4-2.823 1.203-.784.801-1.177 1.812-1.177 3.032v16.968c0 1.167.393 2.178 1.177 3.032.784.837 1.725 1.255 2.823 1.255ZM282.204 65.255h-6.065c-.14 0-.21-.087-.21-.261l.105-36.785c0-.14.07-.209.209-.209h10.824c1.934 0 3.712.47 5.333 1.412a10.75 10.75 0 0 1 3.869 3.79c.976 1.587 1.464 3.382 1.464 5.386 0 1.307-.2 2.493-.601 3.556-.401 1.063-.871 1.96-1.412 2.693-.523.732-1.002 1.272-1.438 1.62 1.935 2.144 2.902 4.663 2.902 7.556l.053 10.98c0 .175-.087.262-.262.262h-6.065c-.14 0-.209-.052-.209-.157V54.013c0-1.29-.453-2.405-1.36-3.346-.906-.942-2.022-1.412-3.346-1.412h-3.53l-.052 15.738c0 .175-.07.262-.209.262Zm4.863-30.85h-4.602v8.419h4.602c1.098 0 2.074-.41 2.928-1.23.871-.818 1.307-1.82 1.307-3.006 0-1.133-.418-2.109-1.255-2.928-.836-.836-1.83-1.255-2.98-1.255ZM129.394 106.824l6.64-36.785c.035-.14.122-.209.262-.209h7.764c.14 0 .227.07.262.21l6.379 36.784c.017.174-.053.261-.209.261h-5.935c-.174 0-.27-.087-.288-.261l-.575-3.922H136.4l-.575 3.922c-.018.174-.105.261-.262.261h-5.96c-.14 0-.209-.087-.209-.261Zm10.483-24.68-2.405 15.032h5.15l-2.196-15.032-.313-1.987-.236 1.987ZM171.563 107.085h-17.307c-.139 0-.209-.087-.209-.261l.052-36.733c0-.174.088-.26.262-.26h5.961c.174 0 .261.086.261.26l-.052 30.406h11.032c.175 0 .262.087.262.261v6.066c0 .174-.087.261-.262.261ZM192.845 107.085h-17.308c-.139 0-.209-.087-.209-.261l.052-36.733c0-.174.088-.26.262-.26h5.961c.174 0 .261.086.261.26l-.052 30.406h11.033c.174 0 .261.087.261.261v6.066c0 .174-.087.261-.261.261ZM202.884 107.085h-6.066c-.139 0-.209-.087-.209-.261l.105-36.785c0-.14.07-.209.209-.209h10.823c1.935 0 3.713.47 5.334 1.412a10.75 10.75 0 0 1 3.869 3.79c.976 1.587 1.464 3.382 1.464 5.386 0 1.307-.2 2.493-.601 3.556-.401 1.063-.872 1.96-1.412 2.693-.523.732-1.002 1.272-1.438 1.62 1.935 2.144 2.902 4.663 2.902 7.556l.052 10.981c0 .174-.087.261-.261.261h-6.065c-.14 0-.21-.052-.21-.157V95.843c0-1.29-.453-2.405-1.359-3.346-.906-.942-2.022-1.412-3.346-1.412h-3.53l-.052 15.739c0 .174-.07.261-.209.261Zm4.862-30.85h-4.601v8.419h4.601c1.099 0 2.075-.41 2.929-1.23.871-.818 1.307-1.82 1.307-3.006 0-1.133-.419-2.109-1.255-2.928-.837-.836-1.83-1.255-2.981-1.255ZM232.348 107.608c-1.9 0-3.652-.488-5.255-1.464a11.417 11.417 0 0 1-3.843-3.896c-.959-1.638-1.438-3.433-1.438-5.385l.052-16.968c0-1.986.479-3.773 1.438-5.36a10.756 10.756 0 0 1 3.817-3.842 9.873 9.873 0 0 1 5.229-1.464c1.952 0 3.703.479 5.255 1.438a10.83 10.83 0 0 1 3.764 3.869c.959 1.603 1.438 3.39 1.438 5.36l.053 16.967c0 1.952-.471 3.738-1.412 5.359a11.121 11.121 0 0 1-3.817 3.922c-1.586.976-3.347 1.464-5.281 1.464Zm0-6.458c1.08 0 2.022-.435 2.823-1.307.802-.889 1.203-1.882 1.203-2.98l-.052-16.968c0-1.185-.375-2.187-1.125-3.006-.749-.82-1.699-1.229-2.849-1.229-1.098 0-2.039.401-2.824 1.203-.784.802-1.176 1.812-1.176 3.032v16.968c0 1.168.392 2.178 1.176 3.032.785.837 1.726 1.255 2.824 1.255ZM256.766 107.608a9.875 9.875 0 0 1-5.229-1.464 11.05 11.05 0 0 1-3.843-3.922c-.941-1.656-1.412-3.46-1.412-5.412l.105-26.77c0-.14.07-.21.209-.21h6.013c.14 0 .209.07.209.21v26.77c0 1.203.384 2.231 1.151 3.085.767.837 1.699 1.255 2.797 1.255 1.15 0 2.109-.418 2.876-1.255.767-.854 1.15-1.882 1.15-3.085V70.04c0-.14.07-.21.209-.21h6.013c.14 0 .21.07.21.21l.104 26.77c0 1.97-.47 3.783-1.412 5.438a11.113 11.113 0 0 1-3.817 3.922c-1.586.959-3.363 1.438-5.333 1.438ZM277.367 107.085h-5.359c-.279 0-.418-.122-.418-.366l-.053-36.47c0-.28.14-.419.419-.419h4.836l9.046 21.098-.261-20.68c0-.279.156-.418.47-.418h5.307c.209 0 .314.14.314.418l.052 36.523c0 .209-.087.314-.261.314h-4.706l-9.281-19.712.392 19.294c0 .279-.165.418-.497.418ZM306.23 107.033l-9.595.052c-.174 0-.261-.087-.261-.261l.105-36.785c0-.14.069-.209.209-.209l10.013-.052c1.987-.053 3.782.4 5.385 1.36a10.771 10.771 0 0 1 3.87 3.895c.976 1.62 1.464 3.416 1.464 5.385v15.373c0 2.056-.497 3.939-1.491 5.647a11.623 11.623 0 0 1-4.026 4.052c-1.673.994-3.564 1.508-5.673 1.543Zm.471-30.85-3.739.052-.052 24.262h3.32c1.325 0 2.44-.462 3.347-1.386.906-.924 1.359-2.03 1.359-3.32V80.366c0-1.133-.418-2.118-1.255-2.954-.836-.854-1.83-1.264-2.98-1.229Z"/>
    <path fill="currentColor" fill-rule="evenodd" d="M59.224 121.307c28.37 0 51.451-23.177 51.451-51.87 0-28.691-23.08-51.868-51.451-51.868-28.37 0-51.451 23.177-51.451 51.869s23.08 51.869 51.45 51.869Zm0 6.693c32.112 0 58.144-26.219 58.144-58.562 0-32.343-26.032-58.562-58.144-58.562-32.112 0-58.144 26.219-58.144 58.562C1.08 101.78 27.112 128 59.224 128Z" clip-rule="evenodd"/>
    <path fill="currentColor" fill-rule="evenodd" d="M29.028 96.21h31.775c-.517-3.868-.649-8.037.366-12.18 1.412-5.773 4.957-11.157 11.872-15.651 2.088-1.357 3.822-2.738 5.032-4.006 1.172-1.23 1.543-2.032 1.627-2.366a2.29 2.29 0 0 0-.39-.272c-.957-.554-2.986-1.178-6.731-1.45-9.355-.679-19.3 5.68-28.016 14.74-6.706 6.969-12.194 15.03-15.535 21.184ZM39.74 70.383c8.987-9.34 20.809-17.682 33.323-16.774 4.071.296 7.319 1.013 9.599 2.332 1.182.684 2.235 1.605 2.933 2.837.718 1.269.928 2.639.766 3.955-.3 2.438-1.85 4.586-3.445 6.258-1.683 1.765-3.87 3.467-6.228 4.999-5.61 3.646-8.044 7.65-9.018 11.63-1.014 4.14-.537 8.602.364 13.305l.763 3.976h-50.19l1.982-4.657c2.977-6.995 10.03-18.383 19.15-27.86Z" clip-rule="evenodd"/>
</svg>
